X: 21482
T: Key Of The Convent, The
R: jig
M: 6/8
K: Dmajor
AFF dFF|A^GB AFD|AFF dFE|DFA B2 d|
AFF dFF|A^GB AFE|~F3 FEF|DFA B2:|
ABc ~d3|dfa afd|geg fdB|AFA B2 d|
ABc dcd|dfa gfe|fge fdB|AFA B2:|
Bbb Baa|fge fdA|Bbb Baa|AFA B2 A|
Bbb Baa|fge fdB|AFd AFE|DFA B2:|

